X: 25948
T: Maurice O'Keeffe's
R: polka
M: 2/4
K: Gmajor
|:F/E/|DG F2|G/A/B AB/c/|dA FA|G/A/G/F/ E^D|
DG FG/A/|GB G/A/B/c/|dA F/G/A/F/|G2 G:|
|:A|B2 B2|c/d/c/B/ A2|dA F2|G/A/G/F/ E/F/G/A/|
B2 BA/B/|cB A2|dA F/G/A/F/|G2- G:|

